public/payments/elo.svg

<svg width="60" height="40" viewBox="0 0 60 40" fill="none" xmlns="http://www.w3.org/2000/svg">
<rect x="0.5" y="0.5" width="59" height="39" rx="2.5" fill="#272324" stroke="#D5DFFF"/>
<g clip-path="url(#clip0_180_628)">
<path d="M18.4555 15.9642C18.8587 15.8301 19.281 15.762 19.706 15.7626C21.615 15.7626 23.2089 17.1194 23.5722 18.9231L26.2791 18.371C25.6592 15.3069 22.9513 13 19.706 13C18.9832 12.999 18.2652 13.1157 17.5798 13.3453L18.4555 15.9642Z" fill="#FFCB05"/>
<path d="M15.2627 24.7394L17.093 22.6691C16.6741 22.2987 16.3387 21.8433 16.1092 21.3331C15.8797 20.823 15.7613 20.2698 15.7619 19.7103C15.7613 19.1513 15.8797 18.5986 16.1093 18.089C16.3388 17.5794 16.6741 17.1245 17.093 16.7548L15.2627 14.6829C13.8756 15.9126 13 17.7102 13 19.7103C13 21.7104 13.8756 23.5088 15.2627 24.7394Z" fill="#00A4E0"/>
<path d="M23.573 20.5026C23.207 22.3046 21.615 23.6596 19.7078 23.6596C19.282 23.6608 18.859 23.5921 18.4555 23.4563L17.5798 26.0787C18.2661 26.3067 18.9846 26.4226 19.7078 26.4218C22.9497 26.4218 25.6556 24.1186 26.2791 21.0579L23.573 20.5026Z" fill="#EF4123"/>
<path d="M28.6452 22.755C28.5396 22.5802 28.4454 22.3987 28.3631 22.2117C27.9341 21.216 27.9149 20.1853 28.2756 19.1966C28.6732 18.1116 29.4332 17.2824 30.4158 16.8582C31.6506 16.3271 33.0149 16.4304 34.1989 17.1334C34.9502 17.5646 35.4826 18.2308 35.8873 19.1738C35.938 19.2948 35.9836 19.4227 36.0291 19.5332L28.6452 22.755ZM31.1111 18.4591C30.2337 18.8362 29.7818 19.66 29.8764 20.6234L33.5893 19.0231C32.9504 18.2728 32.1199 18.0239 31.1111 18.4586V18.4591ZM34.0518 21.9404C34.0513 21.9404 34.0508 21.9406 34.0505 21.941C34.0502 21.9413 34.05 21.9418 34.05 21.9422L33.973 21.8896C33.7505 22.249 33.4055 22.5417 32.9694 22.7311C32.1393 23.0918 31.3703 22.9992 30.8169 22.5137L30.7661 22.5907C30.7661 22.5905 30.7661 22.5903 30.766 22.5901C30.7659 22.5899 30.7657 22.5897 30.7656 22.5895C30.7654 22.5894 30.7652 22.5893 30.765 22.5892C30.7648 22.5891 30.7645 22.5891 30.7643 22.5891L29.8221 24.0002C30.0564 24.1627 30.3071 24.3001 30.57 24.4101C31.6103 24.8432 32.6751 24.8222 33.7243 24.3664C34.4826 24.0368 35.0781 23.5355 35.4844 22.8992L34.0518 21.9404ZM38.6089 14.7832V22.6258L39.8279 23.1202L39.1361 24.7364L37.7909 24.1755C37.4898 24.0443 37.283 23.8441 37.1289 23.618C36.9801 23.3885 36.8697 23.0712 36.8697 22.6468V14.7832H38.6089ZM41.765 20.6294C41.7648 20.312 41.8327 19.9983 41.9642 19.7095C42.0956 19.4206 42.2874 19.1634 42.5267 18.9552L41.2763 17.5599C40.8415 17.9433 40.4934 18.4151 40.2551 18.9439C40.0168 19.4726 39.8939 20.0461 39.8944 20.6261C39.893 21.2064 40.0153 21.7803 40.2529 22.3096C40.4906 22.8389 40.8383 23.3114 41.2728 23.6956L42.5215 22.3002C42.2836 22.0919 42.093 21.8351 41.9625 21.5469C41.832 21.2588 41.7647 20.946 41.765 20.6297V20.6294ZM43.9856 22.8538C43.7461 22.8533 43.5082 22.8142 43.2812 22.738L42.6839 24.5138C43.1027 24.6544 43.5417 24.7261 43.9835 24.726C45.9625 24.7276 47.6142 23.3217 47.9972 21.4549L46.1623 21.0798C46.0594 21.5813 45.7864 22.0318 45.3897 22.3551C44.993 22.6784 44.4968 22.8545 43.9853 22.8538H43.9856ZM43.9908 16.5326C43.5499 16.5323 43.1118 16.6028 42.6932 16.7413L43.2851 18.5186C43.5123 18.4428 43.7501 18.4041 43.9895 18.4038C44.5019 18.4042 44.9984 18.5819 45.3948 18.9068C45.7913 19.2317 46.0633 19.6838 46.1648 20.1865L47.9996 19.8149C47.6233 17.9447 45.9718 16.5346 43.9912 16.5321L43.9908 16.5326Z" fill="white"/>
</g>
<defs>
<clipPath id="clip0_180_628">
<rect width="35" height="13.4223" fill="white" transform="translate(13 13)"/>
</clipPath>
</defs>
</svg>

<svg width="60" height="40" viewBox="0 0 60 40" fill="none" xmlns="http://www.w3.org/2000/svg"><rect x=".5" y=".5" width="59" height="39" rx="2.5" fill="#fff" stroke="#D5DFFF"/><g clip-path="url(#a)"><path d="M18.456 15.964a3.945 3.945 0 0 1 5.117 2.959l2.706-.552a6.71 6.71 0 0 0-8.7-5.026l.877 2.62Z" fill="#FFCB05"/><path d="m15.263 24.74 1.83-2.07a3.942 3.942 0 0 1-1.331-2.96 3.937 3.937 0 0 1 1.331-2.955l-1.83-2.072A6.703 6.703 0 0 0 13 19.71c0 2 .876 3.799 2.263 5.03Z" fill="#00A4E0"/><path d="M23.573 20.503a3.946 3.946 0 0 1-5.117 2.953l-.876 2.623a6.71 6.71 0 0 0 8.7-5.02l-2.707-.556Z" fill="#EF4123"/><path fill="#000" d="M28.645 22.755a4.755 4.755 0 0 1-.282-.543 3.99 3.99 0 0 1-.087-3.015c.397-1.085 1.157-1.915 2.14-2.339 1.235-.53 2.599-.428 3.783.275.751.432 1.284 1.098 1.688 2.04.051.122.097.25.142.36l-7.384 3.222Zm2.466-4.296c-.877.377-1.33 1.201-1.235 2.164l3.713-1.6c-.639-.75-1.47-1-2.478-.564Zm2.94 3.481v.001l-.001.001-.077-.052a2.179 2.179 0 0 1-1.004.841c-.83.36-1.599.268-2.152-.217l-.05.077h-.001v-.002h-.001L29.821 24c.234.163.485.3.748.41 1.04.433 2.105.412 3.154-.044.759-.33 1.354-.83 1.76-1.467l-1.432-.959Zm4.558-7.157v7.843l1.219.494-.692 1.616-1.345-.56a1.521 1.521 0 0 1-.662-.558c-.149-.23-.26-.547-.26-.971v-7.864h1.74Zm3.156 5.846a2.216 2.216 0 0 1 .762-1.674l-1.25-1.395a4.08 4.08 0 0 0-1.383 3.066 4.087 4.087 0 0 0 1.379 3.07L42.52 22.3a2.216 2.216 0 0 1-.756-1.67Zm2.22 2.225a2.22 2.22 0 0 1-.704-.116l-.597 1.776a4.098 4.098 0 0 0 5.313-3.059l-1.835-.375a2.221 2.221 0 0 1-2.177 1.774Zm.006-6.321c-.441 0-.88.07-1.298.208l.592 1.778a2.22 2.22 0 0 1 2.88 1.668L48 19.814a4.097 4.097 0 0 0-4.009-3.283Z"/></g><defs><clipPath id="a"><path fill="#fff" d="M13 13h35v13.422H13z"/></clipPath></defs></svg>
